!!!OTL: PETERSILJE SUPPENKRAUT
!!!ARE: Europa, Mitteleuropa, Deutschland, Sachsen, Dresden
!!!SCT: E1872
!!!YEM: Copyright 1995, estate of Helmut Schaffrath.
**kern
*ICvox
*Ivox
*M2/4
*k[f#]
*G:
=1
{8g
8g
8g
8b
=2
8g
8g
4d}
=3
{8g
8g
8g
8b
=4
4g
8d
8r}
=5
{8g
8g
8g
8b
=6
8g
8g
4d}
=7
{8g
8g
8g
8b
=8
4g
8d
8r}
=9
{8g
8g
4d
=10
8g
8g
4d}
=11
{8g
8g
8a
8a
=12
8d
8d
8g
8r}
==
!!!AGN: Kinder - Lied, Tanz, Ringelreihen
!!!ONB: ESAC (Essen Associative Code) Database: ERK3
!!!AMT: simple duple
!!!AIN: vox
!!!EED: Helmut Schaffrath
!!!EEV: 1.0
*-
